X: 42
T: POLKA PIQUEE DE NORMANDIE
M: 4/4
L: 1/8
Q:1/4=120
K:C
|e3/2 z/2 g3/2 z/2 ddec|e3/2 z/2 g3/2 z/2 ddc3/2 z/2 |e3/2 z/2 g3/2 z/2 
ddec|e3/2 z/2 g3/2 z/2 ddc3/2 z/2 |
Gcd3/2 z/2 cde3/2 z/2 |fedc de/2f/2ed|Gcd3/2 z/2 cde3/2 z/2 |fedc dec3/2
 z/2 |
Gcd3/2 z/2 cde3/2 z/2 |fedc de/2f/2ed|Gcd3/2 z/2 cde3/2 z/2 |fedc dec3/2
|
